X: 08
T: Miss Barbara Cunningham
C: Robert Mackingosh
T: Dance: In Campbell Country
N: For Dorothey Campbell, J'Ina and John Middleton, and June and Sam Shore,
N: who made us welcome on our visit to Hamilton.
B: Social Dances 2002
B: Kerr's Merrie Melodies
R: strathspey
Z: 2014 John Chambers <jc:trillian.mit.edu>
M: C
L: 1/16
K: G
B2 |\
"G"G3g dB3 "G/B"Gd3 BG3 | "C"E2FG "A7/C#"A3G "D"FD3 D3B |\
"G"G3g dB3 "G/B"Gd3 BG3 | "Am/C"E3c "D7"BAGF "G"G4 G,2 |
B2 |\
"G"G3g dB3 "Em7"Gd3 BG3 | "C"E2FG "A7/C#"A3G "D"FD3 D3B |\
"G"G3g dB3 "G/B"Gd3 BG3 | "Am"E3c "D7"BAGF "G"G4 G,2 |]
ga |\
"G"bg3 "G/B"dg3 "C"eg3 "G"dB3 | "D7/F#"ca3 "G"Bg3 "D"a2A2 A2ga |\
"G"bg3 dg3 "C"eg3 "G/B"dB3 | "Am"ea3 "D7"df3 "G"g4 G2 |
ga |\
"G"bg3 "D"af3 "Em"ge3 "Bm"fd3 | "C"ec3 "G"dB3 "D7"aA3 A2B2 |\
"G/B"G3D BG3 "G"dB3 "C/E"gc3 | "G/D"Bd3 "D7"D3F "G"G4 G,2 |]

%%sep 1 1 500
%%sep 1 1 500
